icon/lg/eleventy.svg

<?xml version="1.0" encoding="UTF-8"?>
<svg viewBox="0 0 256 214" version="1.1" xmlns="http://www.w3.org/2000/svg" preserveAspectRatio="xMidYMid" height="1em" width="1em">
  <g>
    <path d="M98.3289303,4.64128464 C100.471859,4.64128464 102.174638,5.85395151 103.092415,7.82395735 C103.735668,9.20469596 104.017228,10.9584672 104.03058,13.1610787 L104.03108,13.3271173 L104.03108,170.876023 C104.018248,173.796084 103.712831,176.077565 103.044492,177.796661 C102.117194,180.181851 100.3479,181.721692 97.9333407,181.761545 L97.8389409,181.761545 L79.653285,181.739446 C77.1951251,181.739446 75.4259853,180.165239 74.5176005,177.737833 C73.8790793,176.031562 73.5876561,173.764097 73.5757906,170.853334 L73.5754122,39.1452577 L68.6788639,40.3856892 L66.7247707,40.8755938 L66.1538438,41.0146781 L65.8644256,41.0815884 L65.7278643,41.1098715 L65.6782028,41.1182755 L65.6523568,41.1214025 L65.6308519,41.1218885 L65.6248655,41.1207464 L65.6215901,41.1187955 L65.6206762,41.1161218 L65.621774,41.1128112 L65.6245338,41.1089496 L65.6563793,41.0790612 C65.6676738,41.0671162 65.6731146,41.055546 65.6543047,41.048461 L65.6427937,41.0453112 L65.5864567,41.0480462 C63.5231602,41.1253878 61.8062206,40.0215749 60.8670641,38.1312981 C60.1959823,36.7805857 59.90847,35.0550245 59.8951594,32.8706578 L59.8946732,32.710006 L59.8946732,21.2836053 C59.8946732,19.2377244 60.2246613,17.5196761 60.9705286,16.1190067 C61.8215326,14.5209003 63.1838765,13.4238108 64.8978288,12.9787107 L65.0010866,12.9527883 L65.1196547,12.9253147 L96.5655854,4.83172922 C97.0130093,4.72050513 97.5068569,4.66064491 98.0435429,4.64458449 L98.1909712,4.64128464 L98.3289303,4.64128464 Z M150.841751,0 C153.09548,0 154.889799,1.26266924 155.875849,3.34433095 C156.588464,4.84873956 156.90511,6.78578182 156.919135,9.22227683 L156.919624,9.39307606 L156.919624,55.6954157 L156.920066,55.8059225 L170.445653,55.8059225 C172.570456,55.8059225 174.316349,56.9013687 175.342742,58.7697796 L175.391072,58.8593345 L175.438307,58.9500502 C176.181117,60.4026567 176.508522,62.257405 176.523021,64.5725972 L176.523526,64.7348701 L176.523526,71.1663645 C176.523526,73.5220485 176.194921,75.4060488 175.42497,76.8775111 C174.421641,78.794984 172.674719,79.9275043 170.545728,79.9618973 L170.445653,79.962704 L156.897522,79.9624829 L156.897522,140.675127 L156.898625,141.157879 L156.901931,141.634164 L156.907438,142.103974 L156.915145,142.567303 L156.919823,142.796536 L156.933917,143.362516 L156.933917,143.362516 L156.951439,143.918341 L156.972383,144.463999 L156.972383,144.463999 L156.996746,144.999476 L157.007447,145.210814 L157.030487,145.628593 L157.055709,146.039838 L157.08311,146.444543 L157.112689,146.842701 L157.128294,147.039323 L157.161135,147.427649 L157.178369,147.61935 L157.178369,147.61935 L157.196147,147.80941 L157.233329,148.184602 C157.246085,148.308571 157.259201,148.431443 157.272679,148.553217 L157.293166,148.735057 L157.335762,149.093794 C157.427487,149.840223 157.533513,150.543038 157.653749,151.201962 L157.694354,151.419978 L157.724002,151.573712 L157.781759,151.861715 C157.801258,151.956585 157.821001,152.050324 157.840983,152.142928 L157.871135,152.280985 L157.932495,152.551992 L157.995235,152.816182 L158.027112,152.945718 L158.091858,153.199663 C158.176187,153.522709 158.263742,153.828686 158.354187,154.117494 L158.432412,154.360837 C158.813846,155.516646 159.24325,156.377268 159.696791,156.935471 C160.538908,157.971923 161.279702,158.597947 161.850406,158.847049 L162.022612,158.918384 C162.696722,159.186914 163.630266,159.33962 164.830105,159.350185 L164.964517,159.350773 L173.407235,159.350773 C175.425956,159.350773 177.17235,160.154024 178.317937,161.732916 C179.269439,163.044313 179.686989,164.709234 179.705477,166.703466 L179.706121,166.843132 L179.706121,173.98187 C179.706121,176.188839 179.277667,178.00874 178.278782,179.425428 C177.118877,181.070485 175.342649,181.930524 173.278661,181.959687 L173.169766,181.960454 L161.052577,181.982561 C157.694382,181.982561 154.763933,181.747183 152.212983,181.265872 C149.485484,180.751249 146.711599,179.619051 143.862307,177.8847 C140.895792,176.078995 138.463703,173.601748 136.570876,170.481142 C134.731814,167.449174 133.294208,163.357989 132.210082,158.196605 C131.154673,153.17194 130.615663,147.317576 130.59739,140.651025 L130.596909,140.299404 L130.596909,79.9624829 L125.005266,79.962704 C122.897874,79.962704 121.155232,78.8938833 120.122179,77.054965 L120.073524,76.9668166 L120.02595,76.8775111 C119.273904,75.4402688 118.942916,73.6094533 118.927394,71.32995 L118.927394,71.1663645 L118.927394,64.7348701 C118.927394,62.3438899 119.252527,60.4364382 120.012612,58.9500502 C121.008541,57.002456 122.75815,55.8419947 124.904373,55.8067492 L125.005266,55.8059225 L130.596246,55.8059225 L130.596909,55.6238224 L132.744052,9.24996617 L132.756326,9.04217701 C132.907748,6.64546595 133.296564,4.75830889 134.006159,3.30860029 C134.990167,1.29826124 136.677462,0.0385816996 138.829468,0 L138.92912,0 L150.841751,0 Z M250.872486,55.7617198 C252.871982,55.7617198 254.425197,56.9451215 255.22762,58.7717765 C255.771951,60.0109043 256,61.5620043 256,63.4971942 C256,63.5681802 256,63.6404534 255.998052,63.7140473 L255.995623,63.8254329 L255.987871,64.0542478 L255.982555,64.1717276 L255.969062,64.4129579 L255.960892,64.5367587 L255.941722,64.7908577 C255.924883,64.9976425 255.904445,65.2129051 255.880473,65.4371098 L255.861832,65.6069473 L255.827836,65.8975799 L255.790204,66.1978496 L255.748964,66.5079582 L255.716131,66.7444036 L234.508863,177.157835 L234.459661,177.429298 L234.353702,178.004538 L234.247228,178.574321 L234.086552,179.418759 L233.97879,179.974894 L233.816178,180.79886 L233.707123,181.341346 L233.597549,181.878372 L233.487457,182.409937 L233.376846,182.936041 L233.265714,183.456684 L233.09804,184.227408 L232.985605,184.734396 L232.872647,185.235922 L232.759166,185.731985 L232.645162,186.222585 L232.530633,186.707722 L232.415578,187.187395 L232.299998,187.661604 L232.183892,188.130349 L232.067258,188.593629 L231.950097,189.051444 L231.832407,189.503793 L231.714189,189.950677 L231.59544,190.392095 L231.476161,190.828047 L231.356351,191.258532 L231.236009,191.68355 L231.115135,192.1031 L230.993728,192.517183 L230.871787,192.925798 L230.749312,193.328945 L230.626301,193.726623 L230.502755,194.118833 L230.378673,194.505573 L230.254054,194.886843 L230.128897,195.262643 L230.066116,195.448492 L229.940152,195.816087 L229.876967,195.997833 L229.876967,195.997833 L229.813648,196.178212 L229.654759,196.623173 L229.654759,196.623173 L229.495024,197.059586 L229.430894,197.231757 L229.302226,197.571995 L229.173015,197.90676 C229.115468,198.054329 229.05776,198.200276 228.99989,198.344601 L228.8483,198.718055 L228.690534,199.09787 C228.413482,199.757731 228.131362,200.392315 227.843823,201.001641 L227.720259,201.261235 L227.554465,201.602549 L227.387467,201.938367 C225.543801,205.602133 223.478846,208.268393 221.105912,209.942132 C218.149345,212.046355 214.375841,213.122213 209.814945,213.250851 L209.6102,213.255979 L208.349478,213.255979 C201.199379,213.255979 195.976228,211.293857 192.967073,207.146608 L192.876564,207.020265 L192.798522,206.90869 L192.759123,206.859409 C191.901514,205.77119 191.478007,204.272947 191.310602,202.178329 L191.299819,202.037802 L191.281583,201.76914 L191.273428,201.632431 L191.273428,201.632431 L191.265902,201.494124 L191.252701,201.212673 L191.247005,201.069509 L191.247005,201.069509 L191.2419,200.924706 L191.231657,200.555461 L191.231657,200.555461 L191.224893,200.175749 L191.223127,200.020898 L191.221154,199.706054 L191.22125,199.359953 L191.222221,199.168543 L191.226116,198.791028 L191.229046,198.604915 L191.229046,198.604915 L191.232635,198.42056 L191.241798,198.057108 L191.247379,197.878002 L191.247379,197.878002 L191.253629,197.700638 L191.268148,197.351118 L191.285377,197.008515 L191.305338,196.672798 C191.31245,196.562036 191.32002,196.452416 191.328053,196.343933 L191.340451,196.182059 L191.367337,195.863412 L191.397032,195.551535 C191.537009,194.163275 191.762942,192.979694 192.083745,191.987443 C192.916641,189.411277 194.574728,187.681571 197.076485,187.641229 L197.166192,187.640508 L197.264399,187.64204 L197.344956,187.645713 L197.42857,187.65187 L197.516428,187.660799 L197.634028,187.676292 L197.762435,187.69712 L197.934054,187.72994 L198.094402,187.764469 L198.235694,187.797192 L198.514601,187.866283 L198.889723,187.965372 L199.394964,188.105243 L199.928564,188.257345 L200.636228,188.462664 L202.329565,188.960488 L202.81086,189.106359 L203.241239,189.234036 L203.650893,189.352781 L204.039117,189.462564 L204.405211,189.563357 L204.664833,189.633035 L204.911315,189.697628 L205.219002,189.77582 L205.502096,189.844921 L205.697854,189.890764 L205.879086,189.931464 L206.045496,189.96701 L206.243806,190.006366 L206.374477,190.029838 L206.489336,190.048116 L206.556978,190.057408 L206.617373,190.064383 L206.670434,190.069037 L206.694186,190.070492 L206.736079,190.071657 C206.76129,190.071657 206.7796,190.067795 206.816339,190.051768 C206.904169,190.013454 207.022272,189.93342 207.170041,189.794919 C207.632082,189.361856 208.150055,188.573933 208.668169,187.427286 C209.326556,185.970201 209.809396,184.087909 210.100841,181.789004 L210.125353,181.590935 L210.165186,181.246644 L210.202246,180.896366 L210.219733,180.718983 L210.219733,180.718983 L210.236523,180.540107 L210.268005,180.177872 C210.366268,178.984821 210.419613,177.696227 210.426289,176.313039 L210.427005,176.015195 L210.424862,175.920025 L210.421056,175.846303 L210.411788,175.720379 L210.392802,175.523999 L210.366263,175.295283 L210.332196,175.034465 L210.312346,174.892092 L210.267031,174.583562 L210.214247,174.243516 L210.1378,173.774497 L210.049769,173.25706 L209.950199,172.691662 L209.839137,172.078761 L209.69076,171.281221 L209.525984,170.416726 L209.313127,169.324582 L209.04283,167.967758 L208.782812,166.68687 L208.458954,165.117635 L208.116087,163.481737 L184.751739,66.3735005 L184.711201,66.0826233 L184.673965,65.8059445 L184.639652,65.5390829 L184.608272,65.2817382 L184.573186,64.9729831 L184.573186,64.9729831 L184.542717,64.6780427 L184.531826,64.5638033 L184.512275,64.341524 L184.495704,64.1272606 L184.48854,64.023041 L184.47646,63.8202385 L184.467386,63.6247013 L184.463979,63.5295633 L184.459431,63.3443612 L184.457912,63.2542219 L184.457912,63.2542219 L184.457912,63.0031502 C184.470345,61.2799949 184.673437,59.8898484 185.143806,58.7618334 C185.876621,57.0044344 187.331072,55.8212382 189.250557,55.7846924 L189.342312,55.7838211 L203.752396,55.7838211 C205.681252,55.7838211 207.39206,56.4888814 208.713295,57.850153 C209.928532,59.1022153 210.654035,60.9919991 211.126404,63.6264649 L211.152873,63.7763816 L211.197016,64.0382353 L223.873912,131.134856 L233.773551,64.505458 L233.790455,64.3781978 C234.149581,61.7098394 234.758483,59.7265326 235.768415,58.3581286 L235.829494,58.2767617 L235.890339,58.1983898 C237.112955,56.6497438 238.826391,55.7926579 240.776093,55.7617198 L240.882673,55.7617198 L250.872486,55.7617198 Z M38.4563585,4.84019684 C40.5992875,4.84019684 42.3020664,6.05286371 43.2198436,8.02286955 C43.8630957,9.40360816 44.1446562,11.1573794 44.1580082,13.3599909 L44.1585082,13.5260295 L44.1585082,170.88768 C44.1585082,173.897658 43.8544786,176.239901 43.1719201,177.995573 C42.2446217,180.380763 40.4753285,181.920606 38.0643857,181.960459 L37.9701286,181.960459 L19.7586118,181.960459 C17.3004519,181.960459 15.531312,180.386252 14.6229273,177.958846 C13.9844061,176.252576 13.6929829,173.98511 13.6811174,171.074348 L13.680739,39.3660502 L10.1684528,40.2543151 L7.39667708,40.9470009 L6.74016272,41.1054446 L6.4508054,41.1719679 L6.23085793,41.2177492 L6.10511408,41.2378364 L6.00209009,41.2487766 L5.88029804,41.2587639 C3.73325817,41.4125769 1.94000669,40.2998696 0.972390884,38.3523117 C0.301309073,37.0015992 0.0137968091,35.2760381 0.000486180777,33.0916713 L0,32.9310196 L0,21.5046188 C0,19.4587379 0.329988055,17.7406897 1.07585536,16.3400202 C1.92685938,14.7419139 3.2892033,13.6448244 5.00315557,13.1997243 L5.10641336,13.1738019 L5.22542347,13.1461072 L36.6930135,5.03064142 C37.1404374,4.91941733 37.634285,4.85955711 38.170971,4.84349669 L38.3183994,4.84019684 L38.4563585,4.84019684 Z" fill="#000000"/>
  </g>
</svg>

<svg width="256" height="214" xmlns="http://www.w3.org/2000/svg" preserveAspectRatio="xMidYMid"><path d="M98.329 4.641c2.143 0 3.846 1.213 4.763 3.183.644 1.38.925 3.134.939 5.337v157.715c-.013 2.92-.318 5.202-.987 6.92-.927 2.386-2.696 3.926-5.11 3.966h-.095l-18.186-.023c-2.458 0-4.227-1.574-5.135-4.001-.639-1.706-.93-3.974-.942-6.885V39.145l-4.897 1.24-1.954.49-.571.14-.29.067-.136.028-.05.008-.026.003H65.625l-.003-.002-.001-.003v-.003l.004-.004.031-.03c.012-.012.017-.023-.002-.03l-.011-.004-.057.003c-2.063.077-3.78-1.026-4.719-2.917-.671-1.35-.959-3.076-.972-5.26V21.284c0-2.046.33-3.764 1.076-5.165.85-1.598 2.213-2.695 3.927-3.14l.103-.026.119-.028 31.446-8.093a7.014 7.014 0 0 1 1.478-.187l.147-.004h.138ZM150.842 0c2.253 0 4.048 1.263 5.034 3.344.712 1.505 1.03 3.442 1.043 5.878v46.473l.001.11h13.526c2.124 0 3.87 1.096 4.897 2.965l.048.09.047.09c.743 1.453 1.07 3.307 1.085 5.623v6.593c0 2.356-.328 4.24-1.098 5.712-1.003 1.917-2.75 3.05-4.88 3.084h-13.647v61.196l.004.476.005.47.008.463.005.23.014.566.017.555.021.546.025.535.01.212.023.418.026.41.027.406.03.398.015.196.033.389.017.191.018.19.037.376.04.368.02.182.043.359c.091.746.198 1.449.318 2.108l.04.218.03.154.058.288.059.28.03.139.061.271.063.264.032.13.065.254c.084.323.172.629.262.917l.078.244c.382 1.156.811 2.016 1.265 2.574.842 1.037 1.583 1.663 2.153 1.912l.173.071c.674.269 1.607.422 2.807.432h8.577c2.019 0 3.765.804 4.91 2.383.952 1.311 1.37 2.976 1.388 4.97l.001.14v7.139c0 2.207-.428 4.027-1.427 5.443-1.16 1.645-2.936 2.506-5 2.535h-.11l-12.116.023c-3.359 0-6.29-.236-8.84-.717-2.728-.515-5.501-1.647-8.35-3.381-2.967-1.806-5.4-4.283-7.292-7.404-1.84-3.032-3.277-7.123-4.36-12.284-1.056-5.025-1.595-10.88-1.614-17.546V79.962h-5.592c-2.107 0-3.85-1.068-4.883-2.907l-.048-.088-.048-.09c-.752-1.437-1.083-3.268-1.099-5.547v-6.595c0-2.391.326-4.299 1.086-5.785.996-1.948 2.745-3.108 4.891-3.143l.101-.001h5.591v-.182l2.148-46.374.012-.208c.152-2.397.54-4.284 1.25-5.733.984-2.01 2.671-3.27 4.823-3.309h12.013Zm100.03 55.762c2 0 3.553 1.183 4.356 3.01.544 1.239.772 2.79.772 4.725 0 .071 0 .143-.002.217l-.002.111-.008.23-.005.117-.014.241-.008.124-.02.254c-.016.207-.037.422-.06.646l-.02.17-.033.29-.038.3-.041.311-.033.236-21.207 110.414-.05.271-.105.576-.107.57-.16.844-.108.556-.163.824-.109.542-.11.537-.11.532-.11.526-.111.52-.168.771-.112.507-.113.502-.114.496-.114.49-.114.486-.115.48-.116.474-.116.468-.117.464-.117.457-.118.453-.118.447-.119.441-.119.436-.12.43-.12.426-.12.42-.122.413-.122.409-.123.403-.123.398-.123.392-.124.387-.125.38-.125.377-.063.185-.126.368-.063.182-.063.18-.16.445-.159.437-.064.172-.129.34-.129.335-.173.438-.152.373-.157.38c-.278.66-.56 1.294-.847 1.904l-.124.26-.166.34-.167.336c-1.843 3.664-3.908 6.33-6.281 8.004-2.957 2.104-6.73 3.18-11.291 3.309l-.205.005h-1.26c-7.15 0-12.374-1.962-15.383-6.11l-.09-.126-.078-.111-.04-.05c-.857-1.088-1.281-2.586-1.448-4.68l-.011-.141-.018-.269-.009-.137-.007-.138-.013-.281-.006-.143-.005-.145-.01-.37-.007-.38-.002-.154-.002-.315v-.346l.001-.191.004-.378.003-.186.004-.184.009-.364.005-.179.007-.177.014-.35.017-.342.02-.336.023-.33.012-.16.027-.32.03-.311c.14-1.389.366-2.572.687-3.565.833-2.576 2.49-4.305 4.992-4.346h.09l.098.001.081.004.084.006.087.009.118.015.128.021.172.033.16.034.142.033.279.07.375.098.505.14.534.152.707.206 1.694.497.48.146.431.128.41.119.388.11.366.1.26.07.246.065.308.078.283.069.196.046.181.04.166.036.199.04.13.023.115.018.068.01.06.006.053.005.024.001.042.002a.177.177 0 0 0 .08-.02c.088-.039.206-.119.354-.257.462-.433.98-1.221 1.498-2.368.659-1.457 1.141-3.34 1.433-5.638l.024-.198.04-.344.037-.35.018-.178.017-.179.031-.362c.098-1.193.152-2.482.158-3.865l.001-.298-.002-.095-.004-.074-.01-.126-.018-.196-.027-.229-.034-.26-.02-.143-.045-.308-.053-.34-.076-.47-.088-.517-.1-.565-.11-.613-.15-.798-.164-.864-.213-1.092-.27-1.357-.26-1.281-.324-1.57-.343-1.635-23.364-97.108-.04-.291-.038-.277-.034-.267-.032-.257-.035-.309-.03-.295-.011-.114-.02-.222-.016-.215-.007-.104-.013-.203-.009-.195-.003-.095-.005-.186-.001-.09v-.25c.012-1.724.215-3.114.686-4.242.733-1.758 2.187-2.94 4.107-2.977l.091-.001h14.41c1.93 0 3.64.705 4.961 2.066 1.216 1.252 1.941 3.142 2.413 5.776l.027.15.044.262 12.677 67.097 9.9-66.63.016-.127c.36-2.668.968-4.651 1.978-6.02l.061-.081.061-.079c1.223-1.548 2.936-2.405 4.886-2.436h10.097ZM38.456 4.84c2.143 0 3.846 1.213 4.764 3.183.643 1.38.925 3.134.938 5.337v157.528c0 3.01-.304 5.352-.986 7.108-.927 2.385-2.697 3.925-5.108 3.964H19.76c-2.459 0-4.228-1.574-5.136-4.001-.639-1.706-.93-3.974-.942-6.885V39.366l-3.513.888-2.771.693-.657.158-.29.067-.22.046-.125.02-.103.01-.122.01c-2.147.155-3.94-.958-4.908-2.906-.67-1.35-.958-3.076-.972-5.26V21.505c0-2.046.33-3.764 1.076-5.165.85-1.598 2.213-2.695 3.927-3.14l.103-.026.12-.028 31.467-8.115a7.014 7.014 0 0 1 1.478-.188l.147-.003h.138Z"/></svg>
